X: 1
T: Glen Rinnes
S: Jerry Holland, who learned it from Winston Fitzgerald
R: strathspey
B:
Z: 2005 John Chambers <jc:trillian.mit.edu>
M: C
L: 1/16
K: Ador
|:  ea3 Tc3B {G}A4 ABc2 | Bg3 Td3c BG3 G3B \
|1  ea3 Tc3B {G}A4 A3b  | agfe g3B A4 A3B \
:|2 A3c B3d    c3e d3f  | ea3 Tg3B A4 A3 ||
|: G \
| EA,3 {E}A2G2 E4  E2F2 | GG,3 D3G, TB,3A, G,3A \
| EA,3 {E}A2G2 E4  E3F  | GFED {D}G3B, | A,4 A,3 :|
